images/50129970.svg

<?xml version="1.0" encoding="UTF-8"?>
<svg xmlns="http://www.w3.org/2000/svg" xmlns:xlink="http://www.w3.org/1999/xlink" width="300pt" height="300pt" viewBox="0 0 300 300" version="1.1">
<defs>
<g>
<symbol overflow="visible" id="glyph0-0">
<path style="stroke:none;" d="M 0.546875 1.9375 L 0.546875 -7.75 L 6.046875 -7.75 L 6.046875 1.9375 Z M 1.171875 1.328125 L 5.4375 1.328125 L 5.4375 -7.140625 L 1.171875 -7.140625 Z M 1.171875 1.328125 "/>
</symbol>
<symbol overflow="visible" id="glyph0-1">
<path style="stroke:none;" d="M 1.078125 -8.015625 L 2.546875 -8.015625 L 6.09375 -1.3125 L 6.09375 -8.015625 L 7.15625 -8.015625 L 7.15625 0 L 5.6875 0 L 2.125 -6.703125 L 2.125 0 L 1.078125 0 Z M 1.078125 -8.015625 "/>
</symbol>
<symbol overflow="visible" id="glyph0-2">
<path style="stroke:none;" d="M 4.328125 -7.28125 C 3.546875 -7.28125 2.921875 -6.984375 2.453125 -6.390625 C 1.992188 -5.804688 1.765625 -5.007812 1.765625 -4 C 1.765625 -2.988281 1.992188 -2.1875 2.453125 -1.59375 C 2.921875 -1.007812 3.546875 -0.71875 4.328125 -0.71875 C 5.117188 -0.71875 5.742188 -1.007812 6.203125 -1.59375 C 6.660156 -2.1875 6.890625 -2.988281 6.890625 -4 C 6.890625 -5.007812 6.660156 -5.804688 6.203125 -6.390625 C 5.742188 -6.984375 5.117188 -7.28125 4.328125 -7.28125 Z M 4.328125 -8.171875 C 5.453125 -8.171875 6.351562 -7.789062 7.03125 -7.03125 C 7.707031 -6.28125 8.046875 -5.269531 8.046875 -4 C 8.046875 -2.738281 7.707031 -1.726562 7.03125 -0.96875 C 6.351562 -0.21875 5.453125 0.15625 4.328125 0.15625 C 3.203125 0.15625 2.300781 -0.21875 1.625 -0.96875 C 0.957031 -1.71875 0.625 -2.726562 0.625 -4 C 0.625 -5.269531 0.957031 -6.28125 1.625 -7.03125 C 2.300781 -7.789062 3.203125 -8.171875 4.328125 -8.171875 Z M 4.328125 -8.171875 "/>
</symbol>
<symbol overflow="visible" id="glyph0-3">
<path style="stroke:none;" d="M 1.078125 -8.015625 L 2.171875 -8.015625 L 2.171875 -4.734375 L 6.109375 -4.734375 L 6.109375 -8.015625 L 7.1875 -8.015625 L 7.1875 0 L 6.109375 0 L 6.109375 -3.8125 L 2.171875 -3.8125 L 2.171875 0 L 1.078125 0 Z M 1.078125 -8.015625 "/>
</symbol>
<symbol overflow="visible" id="glyph1-0">
<path style="stroke:none;" d="M 0.453125 1.59375 L 0.453125 -6.34375 L 4.953125 -6.34375 L 4.953125 1.59375 Z M 0.953125 1.09375 L 4.453125 1.09375 L 4.453125 -5.84375 L 0.953125 -5.84375 Z M 0.953125 1.09375 "/>
</symbol>
<symbol overflow="visible" id="glyph1-1">
<path style="stroke:none;" d="M 1.734375 -0.75 L 4.828125 -0.75 L 4.828125 0 L 0.65625 0 L 0.65625 -0.75 C 1 -1.09375 1.457031 -1.554688 2.03125 -2.140625 C 2.613281 -2.734375 2.984375 -3.113281 3.140625 -3.28125 C 3.421875 -3.601562 3.613281 -3.875 3.71875 -4.09375 C 3.832031 -4.320312 3.890625 -4.539062 3.890625 -4.75 C 3.890625 -5.101562 3.769531 -5.390625 3.53125 -5.609375 C 3.289062 -5.828125 2.972656 -5.9375 2.578125 -5.9375 C 2.296875 -5.9375 2 -5.882812 1.6875 -5.78125 C 1.382812 -5.6875 1.054688 -5.539062 0.703125 -5.34375 L 0.703125 -6.25 C 1.054688 -6.382812 1.390625 -6.488281 1.703125 -6.5625 C 2.015625 -6.644531 2.300781 -6.6875 2.5625 -6.6875 C 3.238281 -6.6875 3.78125 -6.515625 4.1875 -6.171875 C 4.59375 -5.828125 4.796875 -5.375 4.796875 -4.8125 C 4.796875 -4.539062 4.742188 -4.28125 4.640625 -4.03125 C 4.535156 -3.789062 4.351562 -3.507812 4.09375 -3.1875 C 4.019531 -3.101562 3.785156 -2.859375 3.390625 -2.453125 C 2.992188 -2.046875 2.441406 -1.476562 1.734375 -0.75 Z M 1.734375 -0.75 "/>
</symbol>
<symbol overflow="visible" id="glyph1-2">
<path style="stroke:none;" d="M 4.140625 -5.640625 L 4.140625 -3.1875 L 6.59375 -3.1875 L 6.59375 -2.453125 L 4.140625 -2.453125 L 4.140625 0 L 3.40625 0 L 3.40625 -2.453125 L 0.953125 -2.453125 L 0.953125 -3.1875 L 3.40625 -3.1875 L 3.40625 -5.640625 Z M 4.140625 -5.640625 "/>
</symbol>
</g>
</defs>
<g id="surface749">
<rect x="0" y="0" width="300" height="300" style="fill:rgb(100%,100%,100%);fill-opacity:1;stroke:none;"/>
<path style="fill:none;stroke-width:1.2;stroke-linecap:butt;stroke-linejoin:miter;stroke:rgb(0%,0%,100%);stroke-opacity:1;stroke-miterlimit:10;" d="M 185.917969 229.347656 L 192.839844 241.023438 "/>
<path style="fill:none;stroke-width:1.2;stroke-linecap:butt;stroke-linejoin:miter;stroke:rgb(0%,0%,0%);stroke-opacity:1;stroke-miterlimit:10;" d="M 192.839844 241.023438 L 199.761719 252.703125 "/>
<path style="fill:none;stroke-width:1.2;stroke-linecap:butt;stroke-linejoin:miter;stroke:rgb(0%,0%,100%);stroke-opacity:1;stroke-miterlimit:10;" d="M 185.917969 229.347656 L 192.566406 217.511719 "/>
<path style="fill:none;stroke-width:1.2;stroke-linecap:butt;stroke-linejoin:miter;stroke:rgb(0%,0%,0%);stroke-opacity:1;stroke-miterlimit:10;" d="M 192.566406 217.511719 L 199.21875 205.679688 "/>
<path style="fill:none;stroke-width:1.2;stroke-linecap:butt;stroke-linejoin:miter;stroke:rgb(0%,0%,0%);stroke-opacity:1;stroke-miterlimit:10;" d="M 158.769531 229.65625 L 172.34375 229.503906 "/>
<path style="fill:none;stroke-width:1.2;stroke-linecap:butt;stroke-linejoin:miter;stroke:rgb(0%,0%,100%);stroke-opacity:1;stroke-miterlimit:10;" d="M 172.34375 229.503906 L 185.917969 229.347656 "/>
<path style=" stroke:none;fill-rule:nonzero;fill:rgb(100%,100%,100%);fill-opacity:1;" d="M 181.917969 222.847656 L 189.917969 222.847656 L 189.917969 235.847656 L 181.917969 235.847656 Z M 181.917969 222.847656 "/>
<g style="fill:rgb(0%,0%,100%);fill-opacity:1;">
  <use xlink:href="#glyph0-1" x="181.917969" y="232.749023"/>
</g>
<path style="fill:none;stroke-width:1.2;stroke-linecap:butt;stroke-linejoin:miter;stroke:rgb(0%,0%,0%);stroke-opacity:1;stroke-miterlimit:10;" d="M 199.21875 205.679688 L 226.367188 205.367188 "/>
<path style="fill:none;stroke-width:1.2;stroke-linecap:butt;stroke-linejoin:miter;stroke:rgb(0%,0%,0%);stroke-opacity:1;stroke-miterlimit:10;" d="M 201.863281 199.261719 L 223.582031 199.011719 "/>
<path style="fill:none;stroke-width:1.2;stroke-linecap:butt;stroke-linejoin:miter;stroke:rgb(0%,0%,0%);stroke-opacity:1;stroke-miterlimit:10;" d="M 199.21875 205.679688 L 185.375 182.324219 "/>
<path style="fill:none;stroke-width:1.2;stroke-linecap:butt;stroke-linejoin:miter;stroke:rgb(0%,0%,0%);stroke-opacity:1;stroke-miterlimit:10;" d="M 226.367188 205.367188 L 239.671875 181.699219 "/>
<path style="fill:none;stroke-width:1.2;stroke-linecap:butt;stroke-linejoin:miter;stroke:rgb(0%,0%,0%);stroke-opacity:1;stroke-miterlimit:10;" d="M 239.671875 181.699219 L 225.828125 158.34375 "/>
<path style="fill:none;stroke-width:1.2;stroke-linecap:butt;stroke-linejoin:miter;stroke:rgb(0%,0%,0%);stroke-opacity:1;stroke-miterlimit:10;" d="M 232.792969 182.621094 L 221.71875 163.9375 "/>
<path style="fill:none;stroke-width:1.2;stroke-linecap:butt;stroke-linejoin:miter;stroke:rgb(0%,0%,0%);stroke-opacity:1;stroke-miterlimit:10;" d="M 225.828125 158.34375 L 198.679688 158.65625 "/>
<path style="fill:none;stroke-width:1.2;stroke-linecap:butt;stroke-linejoin:miter;stroke:rgb(0%,0%,0%);stroke-opacity:1;stroke-miterlimit:10;" d="M 225.828125 158.34375 L 239.132812 134.679688 "/>
<path style="fill:none;stroke-width:1.2;stroke-linecap:butt;stroke-linejoin:miter;stroke:rgb(0%,0%,0%);stroke-opacity:1;stroke-miterlimit:10;" d="M 185.375 182.324219 L 198.679688 158.65625 "/>
<path style="fill:none;stroke-width:1.2;stroke-linecap:butt;stroke-linejoin:miter;stroke:rgb(0%,0%,0%);stroke-opacity:1;stroke-miterlimit:10;" d="M 192.273438 183.085938 L 202.917969 164.152344 "/>
<path style="fill:none;stroke-width:1.2;stroke-linecap:butt;stroke-linejoin:miter;stroke:rgb(0%,0%,0%);stroke-opacity:1;stroke-miterlimit:10;" d="M 239.132812 134.679688 L 218.136719 117.464844 "/>
<path style="fill:none;stroke-width:1.2;stroke-linecap:butt;stroke-linejoin:miter;stroke:rgb(0%,0%,0%);stroke-opacity:1;stroke-miterlimit:10;" d="M 239.132812 134.679688 L 259.730469 116.988281 "/>
<path style="fill:none;stroke-width:1.2;stroke-linecap:butt;stroke-linejoin:miter;stroke:rgb(0%,0%,0%);stroke-opacity:1;stroke-miterlimit:10;" d="M 264.75 143.671875 L 239.132812 134.679688 "/>
<path style="fill:none;stroke-width:1.2;stroke-linecap:butt;stroke-linejoin:miter;stroke:rgb(0%,0%,0%);stroke-opacity:1;stroke-miterlimit:10;" d="M 218.136719 117.464844 L 220.339844 104.070312 "/>
<path style="fill:none;stroke-width:1.2;stroke-linecap:butt;stroke-linejoin:miter;stroke:rgb(100%,0%,0%);stroke-opacity:1;stroke-miterlimit:10;" d="M 220.339844 104.070312 L 222.542969 90.675781 "/>
<path style="fill:none;stroke-width:1.2;stroke-linecap:butt;stroke-linejoin:miter;stroke:rgb(0%,0%,0%);stroke-opacity:1;stroke-miterlimit:10;" d="M 217.007812 114.476562 L 204.304688 119.265625 "/>
<path style="fill:none;stroke-width:1.2;stroke-linecap:butt;stroke-linejoin:miter;stroke:rgb(100%,0%,0%);stroke-opacity:1;stroke-miterlimit:10;" d="M 204.304688 119.265625 L 191.605469 124.054688 "/>
<path style="fill:none;stroke-width:1.2;stroke-linecap:butt;stroke-linejoin:miter;stroke:rgb(0%,0%,0%);stroke-opacity:1;stroke-miterlimit:10;" d="M 219.261719 120.457031 L 206.558594 125.246094 "/>
<path style="fill:none;stroke-width:1.2;stroke-linecap:butt;stroke-linejoin:miter;stroke:rgb(100%,0%,0%);stroke-opacity:1;stroke-miterlimit:10;" d="M 206.558594 125.246094 L 193.859375 130.035156 "/>
<path style="fill:none;stroke-width:1.2;stroke-linecap:butt;stroke-linejoin:miter;stroke:rgb(100%,0%,0%);stroke-opacity:1;stroke-miterlimit:10;" d="M 222.542969 90.675781 L 212.042969 82.070312 "/>
<path style="fill:none;stroke-width:1.2;stroke-linecap:butt;stroke-linejoin:miter;stroke:rgb(0%,0%,0%);stroke-opacity:1;stroke-miterlimit:10;" d="M 212.042969 82.070312 L 201.542969 73.464844 "/>
<path style=" stroke:none;fill-rule:nonzero;fill:rgb(100%,100%,100%);fill-opacity:1;" d="M 218.542969 84.175781 L 227.542969 84.175781 L 227.542969 97.175781 L 218.542969 97.175781 Z M 218.542969 84.175781 "/>
<g style="fill:rgb(100%,0%,0%);fill-opacity:1;">
  <use xlink:href="#glyph0-2" x="218.542969" y="94.077148"/>
</g>
<path style="fill:none;stroke-width:1.2;stroke-linecap:butt;stroke-linejoin:miter;stroke:rgb(0%,0%,0%);stroke-opacity:1;stroke-miterlimit:10;" d="M 201.542969 73.464844 L 205.953125 46.675781 "/>
<path style=" stroke:none;fill-rule:nonzero;fill:rgb(100%,100%,100%);fill-opacity:1;" d="M 183.730469 120.542969 L 192.730469 120.542969 L 192.730469 133.542969 L 183.730469 133.542969 Z M 183.730469 120.542969 "/>
<g style="fill:rgb(100%,0%,0%);fill-opacity:1;">
  <use xlink:href="#glyph0-2" x="183.730469" y="130.444336"/>
</g>
<path style="fill:none;stroke-width:1.2;stroke-linecap:butt;stroke-linejoin:miter;stroke:rgb(0%,0%,0%);stroke-opacity:1;stroke-miterlimit:10;" d="M 259.730469 116.988281 L 264.75 143.671875 "/>
<path style="fill:none;stroke-width:1.2;stroke-linecap:butt;stroke-linejoin:miter;stroke:rgb(0%,0%,0%);stroke-opacity:1;stroke-miterlimit:10;" d="M 185.375 182.324219 L 171.800781 182.480469 "/>
<path style="fill:none;stroke-width:1.2;stroke-linecap:butt;stroke-linejoin:miter;stroke:rgb(0%,0%,100%);stroke-opacity:1;stroke-miterlimit:10;" d="M 171.800781 182.480469 L 158.226562 182.636719 "/>
<path style="fill:none;stroke-width:1.2;stroke-linecap:butt;stroke-linejoin:miter;stroke:rgb(0%,0%,100%);stroke-opacity:1;stroke-miterlimit:10;" d="M 158.226562 182.636719 L 151.574219 194.46875 "/>
<path style="fill:none;stroke-width:1.2;stroke-linecap:butt;stroke-linejoin:miter;stroke:rgb(0%,0%,0%);stroke-opacity:1;stroke-miterlimit:10;" d="M 151.574219 194.46875 L 144.921875 206.304688 "/>
<path style="fill:none;stroke-width:1.2;stroke-linecap:butt;stroke-linejoin:miter;stroke:rgb(0%,0%,100%);stroke-opacity:1;stroke-miterlimit:10;" d="M 162.464844 188.132812 L 157.144531 197.601562 "/>
<path style="fill:none;stroke-width:1.2;stroke-linecap:butt;stroke-linejoin:miter;stroke:rgb(0%,0%,0%);stroke-opacity:1;stroke-miterlimit:10;" d="M 157.144531 197.601562 L 151.824219 207.066406 "/>
<path style=" stroke:none;fill-rule:nonzero;fill:rgb(100%,100%,100%);fill-opacity:1;" d="M 154.226562 176.136719 L 162.226562 176.136719 L 162.226562 189.136719 L 154.226562 189.136719 Z M 154.226562 176.136719 "/>
<g style="fill:rgb(0%,0%,100%);fill-opacity:1;">
  <use xlink:href="#glyph0-1" x="154.226562" y="186.038086"/>
</g>
<path style="fill:none;stroke-width:1.2;stroke-linecap:butt;stroke-linejoin:miter;stroke:rgb(0%,0%,0%);stroke-opacity:1;stroke-miterlimit:10;" d="M 144.921875 206.304688 L 117.773438 206.613281 "/>
<path style="fill:none;stroke-width:1.2;stroke-linecap:butt;stroke-linejoin:miter;stroke:rgb(0%,0%,0%);stroke-opacity:1;stroke-miterlimit:10;" d="M 144.921875 206.304688 L 158.769531 229.65625 "/>
<path style="fill:none;stroke-width:1.2;stroke-linecap:butt;stroke-linejoin:miter;stroke:rgb(0%,0%,0%);stroke-opacity:1;stroke-miterlimit:10;" d="M 117.773438 206.613281 L 103.929688 183.261719 "/>
<path style="fill:none;stroke-width:1.2;stroke-linecap:butt;stroke-linejoin:miter;stroke:rgb(0%,0%,0%);stroke-opacity:1;stroke-miterlimit:10;" d="M 103.929688 183.261719 L 117.234375 159.59375 "/>
<path style="fill:none;stroke-width:1.2;stroke-linecap:butt;stroke-linejoin:miter;stroke:rgb(0%,0%,0%);stroke-opacity:1;stroke-miterlimit:10;" d="M 99.691406 177.761719 L 110.335938 158.828125 "/>
<path style="fill:none;stroke-width:1.2;stroke-linecap:butt;stroke-linejoin:miter;stroke:rgb(0%,0%,0%);stroke-opacity:1;stroke-miterlimit:10;" d="M 103.929688 183.261719 L 76.78125 183.570312 "/>
<path style="fill:none;stroke-width:1.2;stroke-linecap:butt;stroke-linejoin:miter;stroke:rgb(0%,0%,0%);stroke-opacity:1;stroke-miterlimit:10;" d="M 117.234375 159.59375 L 103.390625 136.238281 "/>
<path style="fill:none;stroke-width:1.2;stroke-linecap:butt;stroke-linejoin:miter;stroke:rgb(0%,0%,0%);stroke-opacity:1;stroke-miterlimit:10;" d="M 76.242188 136.550781 L 103.390625 136.238281 "/>
<path style="fill:none;stroke-width:1.2;stroke-linecap:butt;stroke-linejoin:miter;stroke:rgb(0%,0%,0%);stroke-opacity:1;stroke-miterlimit:10;" d="M 79.03125 142.90625 L 100.75 142.65625 "/>
<path style="fill:none;stroke-width:1.2;stroke-linecap:butt;stroke-linejoin:miter;stroke:rgb(0%,0%,0%);stroke-opacity:1;stroke-miterlimit:10;" d="M 76.78125 183.570312 L 62.9375 160.214844 "/>
<path style="fill:none;stroke-width:1.2;stroke-linecap:butt;stroke-linejoin:miter;stroke:rgb(0%,0%,0%);stroke-opacity:1;stroke-miterlimit:10;" d="M 80.894531 177.980469 L 69.816406 159.292969 "/>
<path style="fill:none;stroke-width:1.2;stroke-linecap:butt;stroke-linejoin:miter;stroke:rgb(0%,0%,0%);stroke-opacity:1;stroke-miterlimit:10;" d="M 62.9375 160.214844 L 76.242188 136.550781 "/>
<path style="fill:none;stroke-width:1.2;stroke-linecap:butt;stroke-linejoin:miter;stroke:rgb(0%,0%,0%);stroke-opacity:1;stroke-miterlimit:10;" d="M 76.242188 136.550781 L 62.398438 113.195312 "/>
<path style="fill:none;stroke-width:1.2;stroke-linecap:butt;stroke-linejoin:miter;stroke:rgb(0%,0%,0%);stroke-opacity:1;stroke-miterlimit:10;" d="M 62.398438 113.195312 L 69.050781 101.359375 "/>
<path style="fill:none;stroke-width:1.2;stroke-linecap:butt;stroke-linejoin:miter;stroke:rgb(0%,0%,100%);stroke-opacity:1;stroke-miterlimit:10;" d="M 69.050781 101.359375 L 75.703125 89.527344 "/>
<path style="fill:none;stroke-width:1.2;stroke-linecap:butt;stroke-linejoin:miter;stroke:rgb(0%,0%,0%);stroke-opacity:1;stroke-miterlimit:10;" d="M 62.363281 110 L 48.789062 110.15625 "/>
<path style="fill:none;stroke-width:1.2;stroke-linecap:butt;stroke-linejoin:miter;stroke:rgb(0%,0%,100%);stroke-opacity:1;stroke-miterlimit:10;" d="M 48.789062 110.15625 L 35.214844 110.3125 "/>
<path style="fill:none;stroke-width:1.2;stroke-linecap:butt;stroke-linejoin:miter;stroke:rgb(0%,0%,0%);stroke-opacity:1;stroke-miterlimit:10;" d="M 62.433594 116.386719 L 48.859375 116.542969 "/>
<path style="fill:none;stroke-width:1.2;stroke-linecap:butt;stroke-linejoin:miter;stroke:rgb(0%,0%,100%);stroke-opacity:1;stroke-miterlimit:10;" d="M 48.859375 116.542969 L 35.285156 116.699219 "/>
<path style=" stroke:none;fill-rule:nonzero;fill:rgb(100%,100%,100%);fill-opacity:1;" d="M 64.703125 81.027344 L 86.703125 81.027344 L 86.703125 98.027344 L 64.703125 98.027344 Z M 64.703125 81.027344 "/>
<g style="fill:rgb(0%,0%,100%);fill-opacity:1;">
  <use xlink:href="#glyph0-1" x="64.703125" y="90.928711"/>
  <use xlink:href="#glyph0-3" x="72.686523" y="90.928711"/>
</g>
<g style="fill:rgb(0%,0%,100%);fill-opacity:1;">
  <use xlink:href="#glyph1-1" x="80.710938" y="95.811523"/>
</g>
<path style=" stroke:none;fill-rule:nonzero;fill:rgb(100%,100%,100%);fill-opacity:1;" d="M 5.25 103.007812 L 35.25 103.007812 L 35.25 124.007812 L 5.25 124.007812 Z M 5.25 103.007812 "/>
<g style="fill:rgb(0%,0%,100%);fill-opacity:1;">
  <use xlink:href="#glyph1-2" x="5.25" y="111.257812"/>
</g>
<g style="fill:rgb(0%,0%,100%);fill-opacity:1;">
  <use xlink:href="#glyph0-3" x="12.699219" y="116.140625"/>
</g>
<g style="fill:rgb(0%,0%,100%);fill-opacity:1;">
  <use xlink:href="#glyph1-1" x="20.723633" y="121.023438"/>
</g>
<g style="fill:rgb(0%,0%,100%);fill-opacity:1;">
  <use xlink:href="#glyph0-1" x="26.379883" y="116.140625"/>
</g>
<path style="fill:none;stroke-width:1.2;stroke-linecap:butt;stroke-linejoin:miter;stroke:rgb(0%,0%,0%);stroke-opacity:1;stroke-miterlimit:10;" d="M 155.984375 228.09375 L 149.332031 239.925781 "/>
<path style="fill:none;stroke-width:1.2;stroke-linecap:butt;stroke-linejoin:miter;stroke:rgb(100%,0%,0%);stroke-opacity:1;stroke-miterlimit:10;" d="M 149.332031 239.925781 L 142.679688 251.761719 "/>
<path style="fill:none;stroke-width:1.2;stroke-linecap:butt;stroke-linejoin:miter;stroke:rgb(0%,0%,0%);stroke-opacity:1;stroke-miterlimit:10;" d="M 161.550781 231.222656 L 154.898438 243.058594 "/>
<path style="fill:none;stroke-width:1.2;stroke-linecap:butt;stroke-linejoin:miter;stroke:rgb(100%,0%,0%);stroke-opacity:1;stroke-miterlimit:10;" d="M 154.898438 243.058594 L 148.25 254.890625 "/>
<path style=" stroke:none;fill-rule:nonzero;fill:rgb(100%,100%,100%);fill-opacity:1;" d="M 136.464844 246.824219 L 145.464844 246.824219 L 145.464844 259.824219 L 136.464844 259.824219 Z M 136.464844 246.824219 "/>
<g style="fill:rgb(100%,0%,0%);fill-opacity:1;">
  <use xlink:href="#glyph0-2" x="136.464844" y="256.725586"/>
</g>
</g>
</svg>

<svg xmlns="http://www.w3.org/2000/svg" xmlns:xlink="http://www.w3.org/1999/xlink" width="300pt" height="300pt" viewBox="0 0 300 300"><defs><symbol overflow="visible"><path d="M.547 1.938V-7.75h5.5v9.688zm.625-.61h4.266v-8.47H1.171zm0 0"/></symbol><symbol overflow="visible" id="a"><path d="M1.078-8.016h1.47l3.546 6.704v-6.704h1.062V0H5.688L2.124-6.703V0H1.078zm0 0"/></symbol><symbol overflow="visible" id="b"><path d="M4.328-7.28c-.78 0-1.406.296-1.875.89-.46.585-.687 1.382-.687 2.39 0 1.012.226 1.813.687 2.406.47.586 1.094.875 1.875.875.79 0 1.414-.288 1.875-.874.457-.593.688-1.394.688-2.406 0-1.008-.23-1.805-.687-2.39-.46-.594-1.086-.89-1.875-.89zm0-.892c1.125 0 2.024.383 2.703 1.14C7.708-6.28 8.048-5.27 8.048-4c0 1.262-.34 2.273-1.016 3.03C6.353-.22 5.454.157 4.33.157S2.3-.22 1.625-.97c-.668-.75-1-1.757-1-3.03 0-1.27.332-2.28 1-3.03.676-.76 1.578-1.142 2.703-1.142zm0 0"/></symbol><symbol overflow="visible" id="c"><path d="M1.078-8.016h1.094v3.282H6.11v-3.282h1.077V0H6.11v-3.813H2.17V0H1.078zm0 0"/></symbol><symbol overflow="visible"><path d="M.453 1.594v-7.938h4.5v7.938zm.5-.5h3.5v-6.938h-3.5zm0 0"/></symbol><symbol overflow="visible" id="d"><path d="M1.734-.75h3.094V0H.656v-.75c.344-.344.8-.805 1.375-1.39.583-.594.954-.973 1.11-1.14.282-.322.473-.595.58-.814.112-.226.17-.445.17-.656 0-.352-.12-.64-.36-.86-.24-.218-.557-.327-.952-.327-.28 0-.578.054-.89.156-.305.093-.633.24-.985.436v-.906c.352-.133.688-.238 1-.313.313-.082.598-.125.86-.125.675 0 1.218.172 1.624.516.407.344.61.797.61 1.36 0 .273-.055.53-.156.78-.105.243-.288.524-.546.845-.074.085-.31.328-.703.734-.398.406-.95.976-1.656 1.703zm0 0"/></symbol><symbol overflow="visible" id="e"><path d="M4.14-5.64v2.452h2.454v.735H4.14V0h-.734v-2.453H.953v-.735h2.453V-5.64zm0 0"/></symbol></defs><g><path fill="#fff" d="M0 0h300v300H0z"/><path d="M185.918 229.348l6.922 11.675" stroke-width="1.2" stroke="#00f" stroke-miterlimit="10" fill="none"/><path d="M192.84 241.023l6.922 11.68" stroke-width="1.2" stroke="#000" stroke-miterlimit="10" fill="none"/><path d="M185.918 229.348l6.648-11.836" stroke-width="1.2" stroke="#00f" stroke-miterlimit="10" fill="none"/><path d="M192.566 217.512l6.653-11.832M158.77 229.656l13.574-.152" stroke-width="1.2" stroke="#000" stroke-miterlimit="10" fill="none"/><path d="M172.344 229.504l13.574-.156" stroke-width="1.2" stroke="#00f" stroke-miterlimit="10" fill="none"/><path d="M181.918 222.848h8v13h-8zm0 0" fill="#fff"/><use xlink:href="#a" x="181.918" y="232.749" fill="#00f"/><path d="M199.22 205.68l27.147-.313M201.863 199.262l21.72-.25M199.22 205.68l-13.845-23.356M226.367 205.367l13.305-23.668M239.672 181.7l-13.844-23.356M232.793 182.62l-11.074-18.683M225.828 158.344l-27.148.312M225.828 158.344l13.305-23.664M185.375 182.324l13.305-23.668M192.273 183.086l10.645-18.934M239.133 134.68l-20.996-17.215M239.133 134.68l20.597-17.692M264.75 143.672l-25.617-8.992M218.137 117.465l2.203-13.395" stroke-width="1.2" stroke="#000" stroke-miterlimit="10" fill="none"/><path d="M220.34 104.07l2.203-13.394" stroke-width="1.2" stroke="#f00" stroke-miterlimit="10" fill="none"/><path d="M217.008 114.477l-12.703 4.79" stroke-width="1.2" stroke="#000" stroke-miterlimit="10" fill="none"/><path d="M204.305 119.266l-12.7 4.79" stroke-width="1.2" stroke="#f00" stroke-miterlimit="10" fill="none"/><path d="M219.262 120.457l-12.703 4.79" stroke-width="1.2" stroke="#000" stroke-miterlimit="10" fill="none"/><path d="M206.56 125.246l-12.7 4.79M222.543 90.676l-10.5-8.606" stroke-width="1.2" stroke="#f00" stroke-miterlimit="10" fill="none"/><path d="M212.043 82.07l-10.5-8.605" stroke-width="1.2" stroke="#000" stroke-miterlimit="10" fill="none"/><path d="M218.543 84.176h9v13h-9zm0 0" fill="#fff"/><use xlink:href="#b" x="218.543" y="94.077" fill="#f00"/><path d="M201.543 73.465l4.41-26.79" stroke-width="1.2" stroke="#000" stroke-miterlimit="10" fill="none"/><path d="M183.73 120.543h9v13h-9zm0 0" fill="#fff"/><use xlink:href="#b" x="183.73" y="130.444" fill="#f00"/><path d="M259.73 116.988l5.02 26.684M185.375 182.324l-13.574.156" stroke-width="1.2" stroke="#000" stroke-miterlimit="10" fill="none"/><path d="M171.8 182.48l-13.573.157M158.227 182.637l-6.653 11.832" stroke-width="1.2" stroke="#00f" stroke-miterlimit="10" fill="none"/><path d="M151.574 194.47l-6.652 11.835" stroke-width="1.2" stroke="#000" stroke-miterlimit="10" fill="none"/><path d="M162.465 188.133l-5.32 9.47" stroke-width="1.2" stroke="#00f" stroke-miterlimit="10" fill="none"/><path d="M157.145 197.602l-5.32 9.464" stroke-width="1.2" stroke="#000" stroke-miterlimit="10" fill="none"/><path d="M154.227 176.137h8v13h-8zm0 0" fill="#fff"/><use xlink:href="#a" x="154.227" y="186.038" fill="#00f"/><path d="M144.922 206.305l-27.15.308M144.922 206.305l13.848 23.35M117.773 206.613l-13.843-23.35M103.93 183.262l13.304-23.668M99.69 177.762l10.646-18.934M103.93 183.262l-27.15.308M117.234 159.594l-13.843-23.356M76.242 136.55l27.15-.312M79.03 142.906l21.72-.25M76.78 183.57l-13.843-23.355M80.895 177.98l-11.08-18.687M62.938 160.215l13.304-23.664M76.242 136.55l-13.844-23.355M62.398 113.195l6.653-11.836" stroke-width="1.2" stroke="#000" stroke-miterlimit="10" fill="none"/><path d="M69.05 101.36l6.653-11.833" stroke-width="1.2" stroke="#00f" stroke-miterlimit="10" fill="none"/><path d="M62.363 110l-13.574.156" stroke-width="1.2" stroke="#000" stroke-miterlimit="10" fill="none"/><path d="M48.79 110.156l-13.575.156" stroke-width="1.2" stroke="#00f" stroke-miterlimit="10" fill="none"/><path d="M62.434 116.387l-13.575.156" stroke-width="1.2" stroke="#000" stroke-miterlimit="10" fill="none"/><path d="M48.86 116.543l-13.575.156" stroke-width="1.2" stroke="#00f" stroke-miterlimit="10" fill="none"/><path d="M64.703 81.027h22v17h-22zm0 0" fill="#fff"/><g fill="#00f"><use xlink:href="#a" x="64.703" y="90.929"/><use xlink:href="#c" x="72.687" y="90.929"/></g><use xlink:href="#d" x="80.711" y="95.812" fill="#00f"/><path d="M5.25 103.008h30v21h-30zm0 0" fill="#fff"/><use xlink:href="#e" x="5.25" y="111.258" fill="#00f"/><use xlink:href="#c" x="12.699" y="116.141" fill="#00f"/><use xlink:href="#d" x="20.724" y="121.023" fill="#00f"/><use xlink:href="#a" x="26.38" y="116.141" fill="#00f"/><path d="M155.984 228.094l-6.652 11.832" stroke-width="1.2" stroke="#000" stroke-miterlimit="10" fill="none"/><path d="M149.332 239.926l-6.652 11.836" stroke-width="1.2" stroke="#f00" stroke-miterlimit="10" fill="none"/><path d="M161.55 231.223L154.9 243.06" stroke-width="1.2" stroke="#000" stroke-miterlimit="10" fill="none"/><path d="M154.898 243.06l-6.648 11.83" stroke-width="1.2" stroke="#f00" stroke-miterlimit="10" fill="none"/><path d="M136.465 246.824h9v13h-9zm0 0" fill="#fff"/><use xlink:href="#b" x="136.465" y="256.726" fill="#f00"/></g></svg>
